favicon.svg

<svg width="32" height="32" viewBox="0 0 32 32" fill="none" xmlns="http://www.w3.org/2000/svg">
<rect width="32" height="32" fill="#292929"/>
<path d="M18 6H30V10H18V6ZM18 22H30V26H18V22ZM10 2H6V6H2V10H6V14H10V10H14V6H10V2ZM14 20.8L11.2 18L8 21.2L4.8 18L2 20.8L5.2 24L2 27.2L4.8 30L8 26.8L11.2 30L14 27.2L10.8 24L14 20.8ZM26 29C26 29.5304 25.7893 30.0391 25.4142 30.4142C25.0391 30.7893 24.5304 31 24 31C23.4696 31 22.9609 30.7893 22.5858 30.4142C22.2107 30.0391 22 29.5304 22 29C22 28.4696 22.2107 27.9609 22.5858 27.5858C22.9609 27.2107 23.4696 27 24 27C24.5304 27 25.0391 27.2107 25.4142 27.5858C25.7893 27.9609 26 28.4696 26 29ZM26 19C26 19.5304 25.7893 20.0391 25.4142 20.4142C25.0391 20.7893 24.5304 21 24 21C23.4696 21 22.9609 20.7893 22.5858 20.4142C22.2107 20.0391 22 19.5304 22 19C22 18.4696 22.2107 17.9609 22.5858 17.5858C22.9609 17.2107 23.4696 17 24 17C24.5304 17 25.0391 17.2107 25.4142 17.5858C25.7893 17.9609 26 18.4696 26 19Z" fill="#0D99FF"/>
</svg>

<svg xmlns="http://www.w3.org/2000/svg" width="32" height="32" fill="none"><path fill="#292929" d="M0 0h32v32H0z"/><path fill="#0D99FF" d="M18 6h12v4H18zm0 16h12v4H18zM10 2H6v4H2v4h4v4h4v-4h4V6h-4zm4 18.8L11.2 18 8 21.2 4.8 18 2 20.8 5.2 24 2 27.2 4.8 30 8 26.8l3.2 3.2 2.8-2.8-3.2-3.2zM26 29a2 2 0 1 1-4 0 2 2 0 0 1 4 0m0-10a2 2 0 1 1-4 0 2 2 0 0 1 4 0"/></svg>
